website/static/img/logo.svg

<svg xmlns="http://www.w3.org/2000/svg" viewBox="0 0 24 24"><path d="M19,12V13.5A4,4 0 0,1 23,17.5C23,18.32 22.75,19.08 22.33,19.71L21.24,18.62C21.41,18.28 21.5,17.9 21.5,17.5A2.5,2.5 0 0,0 19,15V16.5L16.75,14.25L19,12M19,23V21.5A4,4 0 0,1 15,17.5C15,16.68 15.25,15.92 15.67,15.29L16.76,16.38C16.59,16.72 16.5,17.1 16.5,17.5A2.5,2.5 0 0,0 19,20V18.5L21.25,20.75L19,23M12,3C16.42,3 20,4.79 20,7C20,9.21 16.42,11 12,11C7.58,11 4,9.21 4,7C4,4.79 7.58,3 12,3M4,9C4,11.21 7.58,13 12,13C13.11,13 14.17,12.89 15.14,12.68C14.19,13.54 13.5,14.67 13.18,15.96L12,16C7.58,16 4,14.21 4,12V9M20,9V11H19.5L18.9,11.03C19.6,10.43 20,9.74 20,9M4,14C4,16.21 7.58,18 12,18L13,17.97C13.09,19.03 13.42,20 13.95,20.88L12,21C7.58,21 4,19.21 4,17V14Z" /></svg>

<?xml version="1.0" encoding="UTF-8"?>
<svg xmlns="http://www.w3.org/2000/svg" version="1.1" viewBox="0 0 24 24">
  <defs>
    <style>
      .cls-1 {
        fill: #fff;
      }
    </style>
  </defs>
  <!-- Generator: Adobe Illustrator 28.6.0, SVG Export Plug-In . SVG Version: 1.2.0 Build 709)  -->
  <g>
    <g id="Laag_1">
      <path class="cls-1" d="M19,12v1.5c2.2,0,4,1.8,4,4s-.2,1.6-.7,2.2l-1.1-1.1c.2-.3.3-.7.3-1.1,0-1.4-1.1-2.5-2.5-2.5v1.5l-2.2-2.2,2.2-2.2M19,23v-1.5c-2.2,0-4-1.8-4-4s.2-1.6.7-2.2l1.1,1.1c-.2.3-.3.7-.3,1.1,0,1.4,1.1,2.5,2.5,2.5v-1.5l2.2,2.2-2.2,2.2M12,3c4.4,0,8,1.8,8,4s-3.6,4-8,4-8-1.8-8-4S7.6,3,12,3M4,9c0,2.2,3.6,4,8,4s2.2-.1,3.1-.3c-1,.9-1.6,2-2,3.3h-1.2c-4.4,0-8-1.8-8-4v-3M20,9v2h-1.1c.7-.6,1.1-1.3,1.1-2M4,14c0,2.2,3.6,4,8,4h1c0,1,.4,2,.9,2.9h-1.9c-4.4.1-8-1.7-8-3.9v-3Z"/>
    </g>
  </g>
</svg>
